X:281
T:Farewell to Ireland
M:4/4
L:1/8
R:reel
K:D
D2 (3FED FAde|f2df eBB2|dBAF GFGB|AGFD E2FE|
D2 (3FED FAde|f2df eBB2|dBAF GFGB|AGFD FDD2:|
defa afdf|g2fg edBA|defa afdf|gafg egfe|
defa afdf|g2fg edBc|dBAF GFGB|1 AGFD FDD2:|AGFD E2FE||
